X:0907
T:Miss Charlote Stirling's Jig.
M:6/8
L:1/8
Q:3/8=120
I: :: (1) || (2) ||
Z:Jack Campin * www.campin.me.uk * 2009
K:D
   B|AFD DFD|AFA d2B|AFD DFD|EcB A2
   B|AFD DFD|AFA d2A|BdB cec|d2d d2:|
   g|faf d2f|gbg e2g|faf d2f|ecA A2
[1 g|faf d2f|gbg e2g|fdf ece|d2d d2:|
[2 g|faf def|gbg efg|faf gec|d2d d2|]

